images/success-button-bluebg.svg

<svg width="35" height="36" fill="none" xmlns="http://www.w3.org/2000/svg"><rect x="1.45833" y="1.7596" width="32.0833" height="32.0833" rx="12.3958" fill="#4D8DFF"/><rect x="1.45833" y="1.7596" width="32.0833" height="32.0833" rx="12.3958" stroke="#fff" stroke-width="2.91667"/><rect x="1.45833" y="1.7596" width="32.0833" height="32.0833" rx="12.3958" stroke="#4D8DFF" stroke-width="2.91667"/><path d="M25.7657 12.5406c-.3124-.3191-.8189-.3191-1.1314 0l-9.5845 9.7884-3.6841-3.7625c-.3124-.319-.8189-.319-1.1314 0-.31241.3191-.31241.8364 0 1.1554l4.2498 4.3402c.3123.319.8192.3188 1.1314 0L25.7657 13.696c.3124-.319.3124-.8363 0-1.1554z" fill="#fff"/></svg>

<svg width="35" height="36" viewBox="0 0 35 36" fill="none" xmlns="http://www.w3.org/2000/svg">
<rect x="1.45833" y="1.7596" width="32.0833" height="32.0833" rx="12.3958" fill="#4D8DFF"/>
<rect x="1.45833" y="1.7596" width="32.0833" height="32.0833" rx="12.3958" stroke="white" stroke-width="2.91667"/>
<rect x="1.45833" y="1.7596" width="32.0833" height="32.0833" rx="12.3958" stroke="#4D8DFF" stroke-width="2.91667"/>
<path d="M25.7657 12.5406C25.4533 12.2215 24.9468 12.2215 24.6343 12.5406L15.0498 22.329L11.3657 18.5665C11.0533 18.2475 10.5468 18.2475 10.2343 18.5665C9.92189 18.8856 9.92189 19.4029 10.2343 19.7219L14.4841 24.0621C14.7964 24.3811 15.3033 24.3809 15.6155 24.0621L25.7657 13.696C26.0781 13.377 26.0781 12.8597 25.7657 12.5406Z" fill="white"/>
</svg>
